!!!COM: Anonim
!!!CDT: [?]
!!!OTL@@LAT: Quem pastores laudauere
!!!OTL@@POL: Braćia siostrÿ posłuchaÿćie
!!!TXO: Latin, Polish
!!!ODT: 
!!!GTL: Hymnbook A
!!!ARL: Opactwo św. Wojciecha, Staniątki 
!!!voices:	1
**kern
*staff1
*I"[Canto]
*oclefC1
*clefG2
*k[]
!*met(c|)
*M3/1
=-
!LO:TX:Y-0:t=noted on four lines, no meter indication
0f
!LO:TX:Y=0:t=slurs for ligatures
1a
(1cc
1b)
1a
(1b
1cc)
1dd
1cc
0g;
=-
!LO:TX:Y=0:t=p. 86r
(1g
1a)
1b
(1a
1g)
1f
1e
2f
2d
1e
1f
1g
2.c
4d
1e
1e
0f;
=-
0e
1f
0g
1a
0g
1d
(1e
1c)
1f
0g
1a
1g
0g;
=-
!LO:TX:Y=0:t=p. 86r
0c
1f
2g
2g
1.a
1g
2f
1g
(1g
1a)
1g
0g;
=-
!LO:TX:Y=0:t=p. 86v
0f
1a
(1cc
1b)
1a
(1b
1cc)
1d
1cc
0g;
=-
!LO:TX:Y=0:t=p. 87r
(1b
1cc)
1dd
(1cc
1b)
1a
1g
2a
2f
1g
1a
1b
2.e
4f
1g
1g
0a;
=-
!LO:TX:Y=0:t=p. 86v
0e
1f
0g
1a
0g
1d
(1e
1c)
1f
0g
1a
1g
0g;
=-
!LO:TX:Y=0:t=p. 87r
0c
1f
2g
2g
1.a
1g
2f
1g
(1g
1a)
1g
0g;
==
*-
!!title: @{OTL}, @{GTL}: @{pag}, ed. @{ENC}
!!!pag: pp. 85v-87r
!!!GTL: Hymnbook A
!!!EFL: 
!!!YEM: Creative Commons CC/BY/NC/SA 4.0
!!!ENC: Marcin Konik
!!!END: 2015-04-08
!!!EED: Marcin Konik
!!!EEV: 
!!!ONB: Encoded in vim by Marcin Konik
!!!CharacterEncoding: utf-8
!!!RDF**kern: l=long note in original notation
!!!RDF**kern: i=editorial accidental
!!muse2ps: z14jc180F
